X:1044
T:Blockers, The
T:Sean Ryan's Reel
R:reel
C:Sean Ryan (-1985)
H:G is the original key. Also in D #228
Z:id:hn-reel-1044
M:C|
K:G
Bcdc BG~G2 | =FDCD FGAc | dg~g2 ^fgag | fdc_B A=F~F2 |
Bcdc BG~G2 | =FDCD FGAc | dg~g2 ^fgag |1 fdcA G2GA :|2 fdcA GABd ||
|: g2dg BgdB | ~c3d cAFA | DG~G2 FGAc | Bcde fdef |
g2ga gdBd | ~c3d cAFA | DG~G2 FGAc |1 BGAF GABd :|2 BGAF G2GA || 

